app/assets/images/sp-logos/square-gsa.svg

<?xml version="1.0" encoding="UTF-8" standalone="no"?>
<svg width="180px" height="180px" viewBox="0 0 180 180" version="1.1" xmlns="http://www.w3.org/2000/svg" xmlns:xlink="http://www.w3.org/1999/xlink">
    <!-- Generator: Sketch 39.1 (31720) - http://www.bohemiancoding.com/sketch -->
    <title>square-gsa</title>
    <desc>Created with Sketch.</desc>
    <defs></defs>
    <g id="Page-1" stroke="none" stroke-width="1" fill="none" fill-rule="evenodd">
        <g id="square-gsa">
            <g id="Star_Mark">
                <polygon id="Shape" fill="#FFFFFF" points="0 0 0 180 180 180 180 0"></polygon>
                <path d="M91.52,124.76 C95.1,126.57 98.79,128.84 98.79,133.46 C98.79,139.46 93.61,141.86 88.44,141.94 C84.44,142 79.74,140.37 76.09,138.87 L75.09,147.97 C79.0626197,149.412725 83.2216323,150.278204 87.44,150.54 C98.9,150.91 108.83,145.63 108.83,132.98 C108.83,121.39 100.23,117.98 91.83,113.76 C88.73,112.21 84.56,110.11 84.56,106.05 C84.56,100.85 89.19,99.27 93.69,99.27 C97.76,99.27 99.92,99.96 104.88,101.9 L106.25,92.9 C102.113542,91.4294315 97.7599684,90.662148 93.37,90.63 C82.93,90.63 74.5,96.15 74.5,106.74 C74.52,118 83.62,120.75 91.52,124.76 L91.52,124.76 Z" id="Shape" fill="#005087"></path>
                <polygon id="Shape" fill="#005087" points="141.29 110.03 145.5 120.3 155.17 120.3 141.29 89.39 127.41 120.3 137.08 120.3"></polygon>
                <polygon id="Shape" fill="#005087" points="148.31 137.75 141.28 132.33 129.05 138.74 134.14 127.12 127.25 120.66 114.33 149.53 124.25 149.53"></polygon>
                <path d="M43.57,150.54 C49.7244672,150.677654 55.8568816,149.757623 61.7,147.82 L61.7,117.71 L41.07,117.71 L41.07,126.16 L52,126.16 L52,141.16 C49.2754431,141.7579 46.4884299,142.02317 43.7,141.95 C32.38,141.95 23.24,133.77 23.17,120.61 C23.11,108.38 31.51,99.28 44.1,99.28 C51.27,99.28 55.41,100.55 60.27,103.72 L61.06,93.72 C55.5364499,91.5484256 49.6331439,90.5078659 43.7,90.66 C26.1,90.66 13.12,102.52 13.12,120.35 C13.07,138.73 25.3,150.54 43.57,150.54 L43.57,150.54 Z" id="Shape" fill="#005087"></path>
                <polygon id="Shape" fill="#005087" points="158.1 149.52 168.25 149.52 155.33 120.66 148.44 127.11"></polygon>
            </g>
        </g>
    </g>
</svg>

<svg width="180" height="180" xmlns="http://www.w3.org/2000/svg"><g fill="none" fill-rule="evenodd"><path fill="#FFF" d="M0 0v180h180V0z"/><path d="M91.52 124.76c3.58 1.81 7.27 4.08 7.27 8.7 0 6-5.18 8.4-10.35 8.48-4 .06-8.7-1.57-12.35-3.07l-1 9.1a44.2 44.2 0 0012.35 2.57c11.46.37 21.39-4.91 21.39-17.56 0-11.59-8.6-15-17-19.22-3.1-1.55-7.27-3.65-7.27-7.71 0-5.2 4.63-6.78 9.13-6.78 4.07 0 6.23.69 11.19 2.63l1.37-9a39.31 39.31 0 00-12.88-2.27c-10.44 0-18.87 5.52-18.87 16.11.02 11.26 9.12 14.01 17.02 18.02zm49.77-14.73l4.21 10.27h9.67l-13.88-30.91-13.88 30.91h9.67zm7.02 27.72l-7.03-5.42-12.23 6.41 5.09-11.62-6.89-6.46-12.92 28.87h9.92zM43.57 150.54a53.78 53.78 0 0018.13-2.72v-30.11H41.07v8.45H52v15a34.5 34.5 0 01-8.3.79c-11.32 0-20.46-8.18-20.53-21.34-.06-12.23 8.34-21.33 20.93-21.33 7.17 0 11.31 1.27 16.17 4.44l.79-10a44.34 44.34 0 00-17.36-3.06c-17.6 0-30.58 11.86-30.58 29.69-.05 18.38 12.18 30.19 30.45 30.19zm114.53-1.02h10.15l-12.92-28.86-6.89 6.45z" fill="#005087"/></g></svg>
